X: 19324
T: Jack In The Garret
R: jig
M: 6/8
K: Dmajor
d/B/|AFD DED|GFE FGA|B3 AGF|GFG EdB|
AFD DED|GFE FGA|Bcd ABG|FGE D2:|
|:A|dcd efg|fed edc|dcd efg|fdB B2A|
dcd efg|fed edc|Bcd ABG|FGE D2:|
|:f/g/|afd ded|gfe fga|b3 agf|gfg efg|
afd ded|gfe fga|Bcd efg|fge d2:|

